static/images/button-arrows.svg

<?xml version="1.0" encoding="UTF-8"?>
<svg width="17px" height="13px" viewBox="0 0 17 13" version="1.1" xmlns="http://www.w3.org/2000/svg" xmlns:xlink="http://www.w3.org/1999/xlink">
    <!-- Generator: Sketch 50.2 (55047) - http://www.bohemiancoding.com/sketch -->
    <title>arrow copy 2</title>
    <desc>Created with Sketch.</desc>
    <defs></defs>
    <g id="-" stroke="none" stroke-width="1" fill="none" fill-rule="evenodd">
        <g id="Homepage" transform="translate(-1074.000000, -5398.000000)" fill="#413F47">
            <g id="latest-news" transform="translate(140.000000, 4591.000000)">
                <g id="Group-48" transform="translate(828.000000, 666.000000)">
                    <g id="arrow-copy-2" transform="translate(106.000000, 141.000000)">
                        <path d="M9.75705437,12.8834504 C9.84837303,12.9829817 9.97235513,13.0333333 10.0967542,13.0333333 C10.2095705,13.0333333 10.3226648,12.9918893 10.4118522,12.9081574 L16.8518794,6.86033217 C16.9463486,6.77163073 17,6.64711117 17,6.51668442 C17,6.38625768 16.9463486,6.26173812 16.8518794,6.17303668 L10.4118522,0.125211431 C10.2242112,-0.0509725015 9.93112042,-0.0398613807 9.75705437,0.149918438 C9.58298831,0.339698257 9.59392246,0.636322988 9.78147087,0.812460038 L15.8556211,6.51668442 L9.7815172,12.2208619 C9.59396879,12.396999 9.58298831,12.6936237 9.75705437,12.8834504" id="Fill-1"></path>
                        <path d="M0.123721034,12.8834504 C0.215039692,12.9829817 0.339021797,13.0333333 0.463420883,13.0333333 C0.576237186,13.0333333 0.689331475,12.9918893 0.778518902,12.9081574 L7.21854604,6.86033217 C7.31301522,6.77163073 7.36666667,6.64711117 7.36666667,6.51668442 C7.36666667,6.38625768 7.31301522,6.26173812 7.21854604,6.17303668 L0.778518902,0.125211431 C0.590877823,-0.0509725015 0.297833422,-0.0398613807 0.123721034,0.149918438 C-0.0503450233,0.339698257 -0.0394108765,0.636322988 0.14813754,0.812460038 L6.22224141,6.51668442 L0.14813754,12.2208619 C-0.0394108765,12.396999 -0.0503450233,12.6936237 0.123721034,12.8834504" id="Fill-4"></path>
                    </g>
                </g>
            </g>
        </g>
    </g>
</svg>

<svg width="17" height="13" xmlns="http://www.w3.org/2000/svg"><g fill="#413F47" fill-rule="evenodd"><path d="M9.757 12.883a.46.46 0 0 0 .655.025l6.44-6.048a.471.471 0 0 0 0-.687L10.412.125a.46.46 0 0 0-.655.025.473.473 0 0 0 .024.662l6.075 5.705-6.074 5.704a.473.473 0 0 0-.025.662M.124 12.883a.46.46 0 0 0 .655.025l6.44-6.048a.471.471 0 0 0 0-.687L.779.125A.46.46 0 0 0 .124.15a.473.473 0 0 0 .024.662l6.074 5.705L.148 12.22a.473.473 0 0 0-.024.662"/></g></svg>
